X:102
T:No Party Q.S.
C:By W.M. Larrabee Binghamton N.Y.
S:American Veteran Fifer #102
M:6/8
L:1/8
Q:1/8=300
K:G 
%%MIDI program 72
%%MIDI transpose 8
%%MIDI ratio 3 1
g | dBG GFG | ABA ABd | ege dBG | BAA Age |
dBG GFG | ABA ABd | ege dBd | def g2:|
|: e | def gfg | efg a2 f | gab efg | dBG A2 d |
def gfg | efg a2 f | gbb egg | def g2:|


